; generated by Slic3r 1.3.0 on 2021-04-19 at 22:42:50

; external perimeters extrusion width = 0.44mm (3.38mm^3/s)
; perimeters extrusion width = 0.48mm (7.54mm^3/s)
; infill extrusion width = 0.48mm (10.05mm^3/s)
; solid infill extrusion width = 0.48mm (2.51mm^3/s)
; top infill extrusion width = 0.48mm (1.88mm^3/s)

M107
M104 S205 ; set temperature
G28 ; home all axes
G1 Z5 F5000 ; lift nozzle

; Filament gcode

M109 S205 ; set temperature and wait for it to be reached
G21 ; set units to millimeters
G90 ; use absolute coordinates
M82 ; use absolute distances for extrusion
G92 E0
G1 Z0.400 F7800.000
G1 E-2.00000 F2400.00000
G92 E0
G1 X90.604 Y70.122 F7800.000
G1 E2.00000 F2400.00000
G1 F1800
G1 X90.976 Y69.646 E2.07171
G1 X91.514 Y69.039 E2.16800
G1 X91.941 Y68.612 E2.23971
G1 X92.547 Y68.075 E2.33600
G1 X93.023 Y67.702 E2.40771
G1 X93.690 Y67.242 E2.50400
G1 X94.207 Y66.929 E2.57571
G1 X94.925 Y66.553 E2.67200
G1 X95.475 Y66.305 E2.74371
G1 X96.233 Y66.017 E2.84000
G1 X96.810 Y65.838 E2.91172
G1 X97.597 Y65.644 E3.00799
G1 X98.191 Y65.535 E3.07971
G1 X99.050 Y65.434 E3.18250
G1 X99.598 Y65.401 E3.24771
G1 X100.409 Y65.401 E3.34398
G1 X101.012 Y65.437 E3.41570
G1 X101.817 Y65.535 E3.51200
G1 X102.411 Y65.644 E3.58371
G1 X103.198 Y65.838 E3.67999
G1 X103.774 Y66.017 E3.75171
G1 X104.532 Y66.305 E3.84800
G1 X105.083 Y66.553 E3.91971
G1 X105.801 Y66.929 E4.01600
G1 X106.318 Y67.242 E4.08771
G1 X106.985 Y67.702 E4.18401
G1 X107.460 Y68.075 E4.25571
G1 X108.067 Y68.612 E4.35201
G1 X108.494 Y69.039 E4.42372
G1 X109.032 Y69.646 E4.52000
G1 X109.404 Y70.122 E4.59171
G1 X109.865 Y70.789 E4.68801
G1 X110.177 Y71.306 E4.75972
G1 X110.554 Y72.023 E4.85601
G1 X110.802 Y72.574 E4.92771
G1 X111.089 Y73.332 E5.02401
G1 X111.269 Y73.909 E5.09572
G1 X111.463 Y74.696 E5.19201
G1 X111.605 Y75.488 E5.28763
G1 X117.563 Y114.580 E9.98395
G1 X117.690 Y115.960 E10.14857
G1 X117.710 Y116.508 E10.21365
G1 X117.707 Y117.405 E10.32027
G1 X117.683 Y117.953 E10.38534
G1 X117.614 Y118.766 E10.48227
G1 X117.539 Y119.391 E10.55704
G1 X117.390 Y120.276 E10.66367
G1 X117.277 Y120.813 E10.72874
G1 X117.057 Y121.683 E10.83536
G1 X116.901 Y122.208 E10.90044
G1 X116.610 Y123.057 E11.00706
G1 X116.411 Y123.568 E11.07214
G1 X116.052 Y124.391 E11.17878
G1 X115.813 Y124.884 E11.24384
G1 X115.388 Y125.675 E11.35047
G1 X115.109 Y126.147 E11.41555
G1 X114.622 Y126.900 E11.52217
G1 X114.305 Y127.348 E11.58724
G1 X113.757 Y128.059 E11.69387
G1 X113.406 Y128.479 E11.75895
G1 X112.802 Y129.143 E11.86558
G1 X112.417 Y129.533 E11.93065
G1 X111.761 Y130.146 E12.03727
G1 X111.345 Y130.503 E12.10235
G1 X110.642 Y131.061 E12.20897
G1 X110.198 Y131.383 E12.27405
G1 X109.451 Y131.881 E12.38067
G1 X108.983 Y132.166 E12.44575
G1 X108.198 Y132.602 E12.55237
G1 X107.709 Y132.847 E12.61745
G1 X106.891 Y133.217 E12.72407
G1 X106.383 Y133.423 E12.78915
G1 X105.537 Y133.725 E12.89577
G1 X105.014 Y133.888 E12.96085
G1 X104.147 Y134.120 E13.06749
G1 X103.612 Y134.240 E13.13255
G1 X102.729 Y134.400 E13.23917
G1 X102.186 Y134.476 E13.30425
G1 X101.293 Y134.564 E13.41089
G1 X100.746 Y134.596 E13.47595
G1 X99.848 Y134.611 E13.58257
G1 X99.300 Y134.597 E13.64765
G1 X98.404 Y134.539 E13.75429
G1 X97.860 Y134.481 E13.81936
G1 X96.971 Y134.350 E13.92598
G1 X96.433 Y134.248 E13.99105
G1 X95.559 Y134.044 E14.09768
G1 X95.030 Y133.899 E14.16275
G1 X94.175 Y133.625 E14.26937
G1 X93.661 Y133.436 E14.33446
G1 X92.831 Y133.094 E14.44109
G1 X92.334 Y132.864 E14.50616
G1 X91.607 Y132.492 E14.60308
G1 X91.057 Y132.186 E14.67785
G1 X90.294 Y131.712 E14.78449
G1 X89.841 Y131.405 E14.84955
G1 X89.119 Y130.871 E14.95617
G1 X88.692 Y130.528 E15.02125
G1 X88.016 Y129.937 E15.12788
G1 X87.618 Y129.560 E15.19295
G1 X86.993 Y128.916 E15.29957
G1 X86.627 Y128.508 E15.36466
G1 X86.056 Y127.815 E15.47128
G1 X85.725 Y127.379 E15.53635
G1 X85.259 Y126.709 E15.63329
G1 X84.918 Y126.179 E15.70805
G1 X84.467 Y125.403 E15.81468
G1 X84.212 Y124.918 E15.87975
G1 X83.826 Y124.108 E15.98637
G1 X83.611 Y123.604 E16.05145
G1 X83.292 Y122.764 E16.15807
G1 X83.119 Y122.245 E16.22315
G1 X82.892 Y121.461 E16.32008
G1 X82.739 Y120.850 E16.39484
G1 X82.561 Y119.970 E16.50147
G1 X82.475 Y119.429 E16.56654
G1 X82.369 Y118.537 E16.67317
G1 X82.327 Y117.991 E16.73825
G1 X82.294 Y117.094 E16.84487
G1 X82.364 Y115.857 E16.99198
G1 X88.400 Y75.507 E21.83755
G1 X88.545 Y74.696 E21.93537
G1 X88.739 Y73.909 E22.03165
G1 X88.919 Y73.332 E22.10337
G1 X89.206 Y72.574 E22.19966
G1 X89.454 Y72.023 E22.27137
G1 X89.831 Y71.306 E22.36766
G1 X90.143 Y70.789 E22.43937
G1 X90.570 Y70.171 E22.52854
G1 E20.52854 F2400.00000
G92 E0
G1 X102.755 Y79.102 F7800.000
G1 E2.00000 F2400.00000
G1 F1800
G1 X102.409 Y79.508 E2.06339
G1 X102.003 Y79.854 E2.12677
G1 X101.548 Y80.133 E2.19016
G1 X101.023 Y80.350 E2.25761
G1 X100.534 Y80.462 E2.31726
G1 X100.004 Y80.504 E2.38037
G1 X99.472 Y80.462 E2.44376
G1 X98.953 Y80.337 E2.50715
G1 X98.460 Y80.133 E2.57053
G1 X98.005 Y79.854 E2.63392
G1 X97.599 Y79.508 E2.69731
G1 X97.252 Y79.102 E2.76069
G1 X96.973 Y78.647 E2.82408
G1 X96.769 Y78.154 E2.88747
G1 X96.644 Y77.635 E2.95085
G1 X96.603 Y77.103 E3.01424
G1 X96.644 Y76.571 E3.07763
G1 X96.769 Y76.052 E3.14101
G1 X96.956 Y75.600 E3.19901
G1 X97.250 Y75.105 E3.26742
G1 X97.599 Y74.698 E3.33112
G1 X98.005 Y74.351 E3.39450
G1 X98.460 Y74.072 E3.45789
G1 X98.984 Y73.855 E3.52534
G1 X99.474 Y73.743 E3.58499
G1 X99.959 Y73.705 E3.64271
G1 X100.533 Y73.743 E3.71112
G1 X101.055 Y73.868 E3.77482
G1 X101.548 Y74.072 E3.83821
G1 X102.003 Y74.351 E3.90159
G1 X102.409 Y74.698 E3.96498
G1 X102.755 Y75.103 E4.02837
G1 X103.034 Y75.559 E4.09175
G1 X103.239 Y76.052 E4.15514
G1 X103.363 Y76.571 E4.21853
G1 X103.405 Y77.103 E4.28191
G1 X103.363 Y77.635 E4.34530
G1 X103.239 Y78.154 E4.40869
G1 X103.034 Y78.647 E4.47208
G1 X102.787 Y79.051 E4.52834
G1 X102.755 Y79.102 F7800.000
G1 X103.176 Y80.811 F7800.000
G1 F1800
G1 X103.176 Y108.172 E7.77782
G1 X104.824 Y109.100 E8.00253
G1 X105.444 Y109.519 E8.09141
G1 X106.028 Y109.987 E8.18030
G1 X106.517 Y110.449 E8.26023
G1 X107.076 Y111.063 E8.35878
G1 X107.525 Y111.654 E8.44692
G1 X107.928 Y112.285 E8.53581
G1 X108.278 Y112.946 E8.62469
G1 X108.572 Y113.634 E8.71358
G1 X108.810 Y114.344 E8.80246
G1 X108.989 Y115.070 E8.89135
G1 X109.109 Y115.809 E8.98023
G1 X109.167 Y116.555 E9.06912
G1 X109.165 Y117.304 E9.15800
G1 X109.102 Y118.049 E9.24689
G1 X108.978 Y118.787 E9.33577
G1 X108.794 Y119.513 E9.42466
G1 X108.552 Y120.221 E9.51354
G1 X108.252 Y120.907 E9.60243
G1 X107.898 Y121.566 E9.69131
G1 X107.492 Y122.195 E9.78020
G1 X107.081 Y122.728 E9.86013
G1 X106.527 Y123.346 E9.95868
G1 X105.984 Y123.852 E10.04682
G1 X105.398 Y124.317 E10.13571
G1 X104.775 Y124.732 E10.22459
G1 X104.120 Y125.095 E10.31348
G1 X103.439 Y125.403 E10.40236
G1 X102.734 Y125.655 E10.49125
G1 X102.011 Y125.848 E10.58013
G1 X101.349 Y125.969 E10.66006
G1 X100.523 Y126.056 E10.75861
G1 X99.781 Y126.068 E10.84676
G1 X99.035 Y126.019 E10.93564
G1 X98.294 Y125.910 E11.02453
G1 X97.639 Y125.758 E11.10446
G1 X96.847 Y125.510 E11.20300
G1 X96.161 Y125.227 E11.29115
G1 X95.495 Y124.885 E11.38004
G1 X94.858 Y124.491 E11.46892
G1 X94.257 Y124.046 E11.55781
G1 X93.693 Y123.554 E11.64669
G1 X93.224 Y123.071 E11.72662
G1 X92.692 Y122.434 E11.82517
G1 X92.268 Y121.825 E11.91332
G1 X91.892 Y121.178 E12.00220
G1 X91.571 Y120.502 E12.09109
G1 X91.305 Y119.803 E12.17997
G1 X91.097 Y119.084 E12.26886
G1 X91.005 Y118.625 E12.32438
G1 X91.754 Y118.488 E12.41483
G1 X92.524 Y118.248 E12.51064
G1 X93.260 Y117.917 E12.60645
G1 X93.950 Y117.500 E12.70226
G1 X94.585 Y117.002 E12.79807
G1 X95.155 Y116.432 E12.89388
G1 X95.653 Y115.797 E12.98969
G1 X96.070 Y115.106 E13.08550
G1 X96.401 Y114.371 E13.18131
G1 X96.641 Y113.600 E13.27712
G1 X96.787 Y112.807 E13.37293
G1 X96.832 Y112.057 E13.46216
G1 X96.832 Y80.811 E17.17309
G1 X97.809 Y81.410 E17.30919
G1 X98.510 Y81.700 E17.39928
G1 X99.248 Y81.877 E17.48937
G1 X100.004 Y81.937 E17.57945
G1 X100.750 Y81.878 E17.66830
G1 X101.459 Y81.716 E17.75466
G1 X102.198 Y81.410 E17.84977
G1 X103.124 Y80.842 E17.97875
G1 X103.890 Y79.215 F7800.000
G1 F1800
G1 X103.890 Y107.754 E21.36815
G1 X105.200 Y108.492 E21.54673
G1 X105.868 Y108.943 E21.64255
G1 X106.498 Y109.448 E21.73836
G1 X107.027 Y109.949 E21.82493
G1 X107.625 Y110.606 E21.93041
G1 X108.111 Y111.245 E22.02577
G1 X108.545 Y111.925 E22.12158
G1 X108.922 Y112.638 E22.21739
G1 X109.240 Y113.379 E22.31321
G1 X109.497 Y114.144 E22.40902
G1 X109.690 Y114.928 E22.50483
G1 X109.818 Y115.724 E22.60065
G1 X109.882 Y116.528 E22.69646
G1 X109.879 Y117.335 E22.79227
G1 X109.811 Y118.139 E22.88808
G1 X109.677 Y118.935 E22.98390
G1 X109.479 Y119.717 E23.07971
G1 X109.218 Y120.480 E23.17552
G1 X108.895 Y121.219 E23.27134
G1 X108.514 Y121.930 E23.36715
G1 X108.075 Y122.607 E23.46296
G1 X107.630 Y123.185 E23.54953
G1 X107.037 Y123.846 E23.65501
G1 X106.451 Y124.394 E23.75037
G1 X105.818 Y124.895 E23.84618
G1 X105.147 Y125.342 E23.94200
G1 X104.441 Y125.733 E24.03781
G1 X103.706 Y126.066 E24.13362
G1 X102.947 Y126.337 E24.22944
G1 X102.167 Y126.546 E24.32525
G1 X101.450 Y126.676 E24.41182
G1 X100.567 Y126.769 E24.51730
G1 X99.764 Y126.783 E24.61266
G1 X98.959 Y126.730 E24.70847
G1 X98.161 Y126.612 E24.80428
G1 X97.451 Y126.447 E24.89086
G1 X96.603 Y126.182 E24.99633
G1 X95.861 Y125.876 E25.09169
G1 X95.143 Y125.508 E25.18751
G1 X94.457 Y125.083 E25.28332
G1 X93.809 Y124.603 E25.37913
G1 X93.201 Y124.072 E25.47495
G1 X92.693 Y123.550 E25.56152
G1 X92.124 Y122.868 E25.66699
G1 X91.665 Y122.209 E25.76235
G1 X91.260 Y121.511 E25.85817
G1 X90.913 Y120.783 E25.95398
G1 X90.627 Y120.029 E26.04979
G1 X90.403 Y119.254 E26.14561
G1 X90.259 Y118.539 E26.23218
G1 X90.187 Y117.965 E26.30093
G1 X90.874 Y117.923 E26.38272
G1 X91.583 Y117.793 E26.46827
G1 X92.270 Y117.579 E26.55382
G1 X92.927 Y117.283 E26.63937
G1 X93.544 Y116.911 E26.72492
G1 X94.111 Y116.467 E26.81047
G1 X94.620 Y115.957 E26.89602
G1 X95.064 Y115.390 E26.98156
G1 X95.437 Y114.774 E27.06711
G1 X95.732 Y114.117 E27.15266
G1 X95.947 Y113.429 E27.23821
G1 X96.077 Y112.721 E27.32376
G1 X96.118 Y112.035 E27.40530
G1 X96.118 Y79.215 E31.30317
G1 X96.430 Y79.127 E31.34170
G1 X96.673 Y79.523 E31.39681
G1 X97.092 Y80.014 E31.47354
G1 X97.584 Y80.434 E31.55028
G1 X98.134 Y80.771 E31.62702
G1 X98.731 Y81.019 E31.70376
G1 X99.360 Y81.170 E31.78049
G1 X100.004 Y81.220 E31.85723
G1 X100.642 Y81.170 E31.93321
G1 X101.241 Y81.033 E32.00621
G1 X101.873 Y80.771 E32.08749
G1 X102.424 Y80.434 E32.16423
G1 X102.915 Y80.014 E32.24097
G1 X103.335 Y79.523 E32.31771
G1 X103.578 Y79.127 E32.37282
G1 X103.832 Y79.199 E32.40421
G1 E30.40421 F2400.00000
G92 E0
G1 X89.419 Y117.250 F7800.000
G1 E2.00000 F2400.00000
G1 F1800
G1 X90.167 Y117.250 E2.08888
G1 X90.788 Y117.213 E2.16273
G1 X91.411 Y117.099 E2.23801
G1 X92.017 Y116.910 E2.31330
G1 X92.595 Y116.650 E2.38859
G1 X93.137 Y116.322 E2.46388
G1 X93.636 Y115.931 E2.53917
G1 X94.084 Y115.483 E2.61446
G1 X94.475 Y114.984 E2.68974
G1 X94.803 Y114.441 E2.76503
G1 X95.063 Y113.863 E2.84032
G1 X95.252 Y113.258 E2.91561
G1 X95.366 Y112.634 E2.99090
G1 X95.404 Y112.014 E3.06475
G1 X95.404 Y77.115 E7.20953
G1 X95.438 Y76.550 E7.27669
G1 X95.554 Y75.951 E7.34913
G1 X95.703 Y75.472 E7.40881
G1 X95.931 Y74.965 E7.47477
G1 X96.219 Y74.490 E7.54073
G1 X96.561 Y74.053 E7.60669
G1 X96.954 Y73.660 E7.67265
G1 X97.391 Y73.318 E7.73862
G1 X97.866 Y73.030 E7.80458
G1 X98.373 Y72.802 E7.87054
G1 X98.903 Y72.637 E7.93650
G1 X99.447 Y72.537 E8.00222
G1 X100.057 Y72.507 E8.07466
G1 X100.558 Y72.537 E8.13434
G1 X101.105 Y72.637 E8.20030
G1 X101.635 Y72.802 E8.26626
G1 X102.141 Y73.030 E8.33223
G1 X102.617 Y73.318 E8.39819
G1 X103.054 Y73.660 E8.46415
G1 X103.446 Y74.053 E8.53011
G1 X103.789 Y74.490 E8.59607
G1 X104.076 Y74.965 E8.66203
G1 X104.304 Y75.472 E8.72799
G1 X104.469 Y76.002 E8.79396
G1 X104.570 Y76.548 E8.85992
G1 X104.604 Y77.115 E8.92732
G1 X104.604 Y107.337 E12.51661
G1 X105.576 Y107.884 E12.64907
G1 X106.292 Y108.368 E12.75181
G1 X106.967 Y108.909 E12.85455
G1 X107.537 Y109.448 E12.94776
G1 X108.175 Y110.148 E13.06016
G1 X108.697 Y110.836 E13.16274
G1 X109.163 Y111.565 E13.26548
G1 X109.567 Y112.330 E13.36822
G1 X109.908 Y113.125 E13.47096
G1 X110.183 Y113.945 E13.57371
G1 X110.390 Y114.785 E13.67645
G1 X110.528 Y115.639 E13.77919
G1 X110.596 Y116.501 E13.88193
G1 X110.593 Y117.367 E13.98467
G1 X110.520 Y118.229 E14.08741
G1 X110.377 Y119.082 E14.19015
G1 X110.164 Y119.920 E14.29289
G1 X109.884 Y120.739 E14.39563
G1 X109.538 Y121.532 E14.49837
G1 X109.129 Y122.294 E14.60112
G1 X108.659 Y123.020 E14.70386
G1 X108.180 Y123.642 E14.79707
G1 X107.548 Y124.346 E14.90947
G1 X106.917 Y124.936 E15.01205
G1 X106.239 Y125.473 E15.11479
G1 X105.519 Y125.953 E15.21753
G1 X104.762 Y126.372 E15.32027
G1 X103.974 Y126.729 E15.42301
G1 X103.159 Y127.020 E15.52575
G1 X102.324 Y127.243 E15.62850
G1 X101.551 Y127.384 E15.72170
G1 X100.610 Y127.483 E15.83411
G1 X99.747 Y127.497 E15.93669
G1 X98.883 Y127.441 E16.03943
G1 X98.028 Y127.314 E16.14217
G1 X97.263 Y127.137 E16.23538
G1 X96.360 Y126.854 E16.34778
G1 X95.562 Y126.524 E16.45036
G1 X94.792 Y126.130 E16.55310
G1 X94.056 Y125.674 E16.65585
G1 X93.361 Y125.160 E16.75859
G1 X92.709 Y124.591 E16.86133
G1 X92.162 Y124.028 E16.95454
G1 X91.555 Y123.302 E17.06694
G1 X91.062 Y122.593 E17.16952
G1 X90.628 Y121.845 E17.27226
G1 X90.256 Y121.064 E17.37500
G1 X89.949 Y120.255 E17.47774
G1 X89.709 Y119.424 E17.58048
G1 X89.553 Y118.655 E17.67369
G1 X89.436 Y117.715 E17.78610
G1 X89.421 Y117.310 E17.83423
G1 X89.771 Y117.439 F7800.000
G1 E15.83423 F2400.00000
G92 E0
G1 X92.104 Y119.318 F7800.000
G1 E2.00000 F2400.00000
G1 F1800
G1 X91.594 Y119.470 E2.06412
G1 X91.674 Y119.747 E2.09894
G1 X92.659 Y118.763 E2.26694
G1 X93.055 Y118.639 E2.31700
G1 X93.870 Y118.273 E2.42474
G1 X94.648 Y117.800 E2.53454
G1 X91.950 Y120.498 E2.99483
G1 X92.285 Y121.188 E3.08742
G1 X104.290 Y109.184 E5.13537
G1 X104.726 Y109.430 E5.19583
G1 X104.931 Y109.568 E5.22565
G1 X92.670 Y121.829 E7.31739
G1 X93.103 Y122.422 E7.40596
G1 X105.526 Y109.999 E9.52538
G1 X105.836 Y110.248 E9.57337
G1 X106.076 Y110.475 E9.61319
G1 X93.577 Y122.974 E11.74549
G1 X93.907 Y123.313 E11.80257
G1 X94.098 Y123.479 E11.83307
G1 X106.580 Y110.997 E13.96262
G1 X106.804 Y111.243 E14.00272
G1 X107.044 Y111.559 E14.05060
G1 X94.662 Y123.941 E16.16302
G1 X94.982 Y124.177 E16.21100
G1 X95.272 Y124.357 E16.25215
G1 X107.461 Y112.168 E18.33161
G1 X107.588 Y112.367 E18.36007
G1 X107.830 Y112.825 E18.42256
G1 X95.929 Y124.726 E20.45287
G1 X96.182 Y124.855 E20.48723
G1 X96.637 Y125.043 E20.54658
G1 X108.148 Y113.532 E22.51041
G1 X108.409 Y114.297 E22.60790
G1 X97.405 Y125.301 E24.48523
G1 X98.234 Y125.498 E24.58800
G1 X108.599 Y115.133 E26.35623
G1 X108.677 Y115.617 E26.41528
G1 X108.711 Y116.047 E26.46740
G1 X99.151 Y125.607 E28.09833
G1 X99.521 Y125.631 E28.14308
G1 X100.163 Y125.621 E28.22056
G1 X108.723 Y117.061 E29.68091
G1 X108.670 Y117.682 E29.75616
G1 X108.578 Y118.232 E29.82337
G1 X101.337 Y125.472 E31.05864
G1 X101.577 Y125.429 E31.08797
G1 X102.243 Y125.250 E31.17121
G1 X102.775 Y125.060 E31.23934
G1 X108.170 Y119.666 E32.15964
G1 X107.887 Y120.317 E32.24525
G1 X107.561 Y120.925 E32.32850
G1 X107.186 Y121.504 E32.41175
G1 X106.809 Y121.993 E32.48619
G1 X106.295 Y122.566 E32.57903
G1 X105.736 Y123.125 E32.67437
G1 E30.67437 F2400.00000
G92 E0
G1 X95.953 Y116.494 F7800.000
G1 E2.00000 F2400.00000
G1 F1800
G1 X103.633 Y108.815 E3.31017
G1 X102.977 Y108.445 E3.40104
G1 X96.916 Y114.506 E4.43499
G1 X97.058 Y114.049 E4.49267
G1 X97.218 Y113.178 E4.59953
G1 X102.739 Y107.657 E5.54144
G1 X102.739 Y106.631 E5.66519
G1 X97.269 Y112.102 E6.59848
G1 X97.269 Y111.076 E6.72223
G1 X102.739 Y105.605 E7.65551
G1 X102.739 Y104.579 E7.77926
G1 X97.269 Y110.050 E8.71255
G1 X97.269 Y109.024 E8.83630
G1 X102.739 Y103.553 E9.76958
G1 X102.739 Y102.528 E9.89333
G1 X97.269 Y107.998 E10.82662
G1 X97.269 Y106.972 E10.95037
G1 X102.739 Y101.502 E11.88365
G1 X102.739 Y100.476 E12.00741
G1 X97.269 Y105.946 E12.94069
G1 X97.269 Y104.921 E13.06444
G1 X102.739 Y99.450 E13.99772
