; generated by Slic3r 1.3.0 on 2021-04-20 at 00:03:13

; external perimeters extrusion width = 0.44mm (3.38mm^3/s)
; perimeters extrusion width = 0.48mm (7.54mm^3/s)
; infill extrusion width = 0.48mm (10.05mm^3/s)
; solid infill extrusion width = 0.48mm (2.51mm^3/s)
; top infill extrusion width = 0.48mm (1.88mm^3/s)

M107
M104 S205 ; set temperature
G28 ; home all axes
G1 Z5 F5000 ; lift nozzle

; Filament gcode

M109 S205 ; set temperature and wait for it to be reached
G21 ; set units to millimeters
G90 ; use absolute coordinates
M82 ; use absolute distances for extrusion
G92 E0
G1 Z0.400 F7800.000
G1 E-2.00000 F2400.00000
G92 E0
G1 X90.735 Y69.630 F7800.000
G1 E2.00000 F2400.00000
G1 F1800
G1 X91.129 Y69.148 E2.07392
G1 X91.696 Y68.535 E2.17308
G1 X92.146 Y68.106 E2.24693
G1 X92.784 Y67.568 E2.34610
G1 X93.284 Y67.198 E2.41995
G1 X94.034 Y66.716 E2.52580
G1 X94.526 Y66.438 E2.59295
G1 X95.278 Y66.075 E2.69212
G1 X95.853 Y65.839 E2.76597
G1 X96.644 Y65.571 E2.86513
G1 X97.245 Y65.409 E2.93898
G1 X98.063 Y65.241 E3.03815
G1 X98.678 Y65.155 E3.11200
G1 X99.511 Y65.090 E3.21116
G1 X100.133 Y65.081 E3.28502
G1 X100.967 Y65.120 E3.38417
G1 X101.585 Y65.188 E3.45803
G1 X102.407 Y65.330 E3.55718
G1 X103.012 Y65.474 E3.63104
G1 X103.811 Y65.717 E3.73020
G1 X104.393 Y65.935 E3.80405
G1 X105.206 Y66.302 E3.90993
G1 X105.707 Y66.564 E3.97706
G1 X106.421 Y66.997 E4.07622
G1 X106.931 Y67.352 E4.15008
G1 X107.586 Y67.870 E4.24924
G1 X108.049 Y68.285 E4.32309
G1 X108.635 Y68.880 E4.42226
G1 X109.042 Y69.350 E4.49611
G1 X109.550 Y70.013 E4.59526
G1 X109.896 Y70.530 E4.66912
G1 X110.317 Y71.251 E4.76829
G1 X110.596 Y71.806 E4.84214
G1 X110.924 Y72.574 E4.94130
G1 X111.133 Y73.160 E5.01515
G1 X111.363 Y73.962 E5.11431
G1 X111.497 Y74.570 E5.18816
G1 X118.121 Y113.769 E9.90974
G1 X118.276 Y115.100 E10.06888
G1 X118.312 Y115.638 E10.13291
G1 X118.336 Y116.571 E10.24375
G1 X118.329 Y117.110 E10.30778
G1 X118.278 Y118.042 E10.41862
G1 X118.228 Y118.579 E10.48264
G1 X118.103 Y119.504 E10.59349
G1 X118.009 Y120.035 E10.65751
G1 X117.810 Y120.947 E10.76836
G1 X117.674 Y121.468 E10.83238
G1 X117.403 Y122.361 E10.94323
G1 X117.226 Y122.870 E11.00725
G1 X116.884 Y123.739 E11.11810
G1 X116.666 Y124.232 E11.18212
G1 X116.256 Y125.070 E11.29297
G1 X115.999 Y125.544 E11.35699
G1 X115.523 Y126.347 E11.46784
G1 X115.229 Y126.799 E11.53186
G1 X114.690 Y127.561 E11.64271
G1 X114.361 Y127.988 E11.70673
G1 X113.762 Y128.704 E11.81758
G1 X113.400 Y129.103 E11.88160
G1 X112.745 Y129.769 E11.99245
G1 X112.352 Y130.137 E12.05647
G1 X111.647 Y130.748 E12.16731
G1 X111.226 Y131.085 E12.23133
G1 X110.473 Y131.637 E12.34219
G1 X110.026 Y131.939 E12.40621
G1 X109.232 Y132.429 E12.51705
G1 X108.762 Y132.693 E12.58108
G1 X107.931 Y133.118 E12.69192
G1 X107.442 Y133.344 E12.75594
G1 X106.580 Y133.701 E12.86680
G1 X106.074 Y133.887 E12.93081
G1 X105.185 Y134.174 E13.04166
G1 X104.666 Y134.319 E13.10568
G1 X103.758 Y134.533 E13.21653
G1 X103.229 Y134.636 E13.28054
G1 X102.306 Y134.777 E13.39140
G1 X101.770 Y134.837 E13.45542
G1 X100.839 Y134.903 E13.56627
G1 X100.301 Y134.920 E13.63029
G1 X99.367 Y134.911 E13.74114
G1 X98.829 Y134.885 E13.80516
G1 X97.899 Y134.801 E13.91601
G1 X97.365 Y134.732 E13.98004
G1 X96.445 Y134.574 E14.09088
G1 X95.835 Y134.441 E14.16497
G1 X95.013 Y134.231 E14.26575
G1 X94.497 Y134.077 E14.32976
G1 X93.614 Y133.774 E14.44061
G1 X93.111 Y133.579 E14.50463
G1 X92.256 Y133.206 E14.61548
G1 X91.770 Y132.971 E14.67950
G1 X90.947 Y132.531 E14.79035
G1 X90.411 Y132.212 E14.86444
G1 X89.697 Y131.754 E14.96521
G1 X89.256 Y131.444 E15.02923
G1 X88.514 Y130.878 E15.14008
G1 X88.099 Y130.534 E15.20409
G1 X87.404 Y129.911 E15.31495
G1 X87.018 Y129.535 E15.37897
G1 X86.376 Y128.857 E15.48982
G1 X85.968 Y128.385 E15.56391
G1 X85.435 Y127.725 E15.66468
G1 X85.114 Y127.292 E15.72870
G1 X84.589 Y126.520 E15.83956
G1 X84.304 Y126.063 E15.90356
G1 X83.842 Y125.252 E16.01442
G1 X83.594 Y124.773 E16.07844
G1 X83.199 Y123.928 E16.18929
G1 X82.990 Y123.431 E16.25330
G1 X82.664 Y122.556 E16.36416
G1 X82.496 Y122.044 E16.42818
G1 X82.241 Y121.146 E16.53903
G1 X82.114 Y120.622 E16.60304
G1 X81.932 Y119.707 E16.71390
G1 X81.848 Y119.174 E16.77792
G1 X81.740 Y118.247 E16.88877
G1 X81.699 Y117.710 E16.95278
G1 X81.666 Y116.777 E17.06364
G1 X81.751 Y115.443 E17.22241
G1 X88.415 Y75.074 E22.08165
G1 X88.557 Y74.311 E22.17389
G1 X88.763 Y73.502 E22.27306
G1 X88.953 Y72.910 E22.34691
G1 X89.258 Y72.132 E22.44607
G1 X89.520 Y71.569 E22.51992
G1 X89.919 Y70.835 E22.61909
G1 X90.249 Y70.308 E22.69294
G1 X90.700 Y69.679 E22.78491
G1 E20.78491 F2400.00000
G92 E0
G1 X102.752 Y78.788 F7800.000
G1 E2.00000 F2400.00000
G1 F1800
G1 X102.406 Y79.194 E2.06339
G1 X102.000 Y79.540 E2.12677
G1 X101.545 Y79.819 E2.19016
G1 X101.020 Y80.036 E2.25761
G1 X100.530 Y80.148 E2.31726
G1 X100.001 Y80.190 E2.38037
G1 X99.468 Y80.148 E2.44376
G1 X98.949 Y80.023 E2.50715
G1 X98.456 Y79.819 E2.57053
G1 X98.001 Y79.540 E2.63392
G1 X97.595 Y79.194 E2.69731
G1 X97.249 Y78.788 E2.76069
G1 X96.994 Y78.371 E2.81868
G1 X96.766 Y77.842 E2.88710
G1 X96.641 Y77.321 E2.95080
G1 X96.599 Y76.789 E3.01418
G1 X96.641 Y76.257 E3.07757
G1 X96.755 Y75.782 E3.13556
G1 X96.969 Y75.247 E3.20398
G1 X97.249 Y74.789 E3.26767
G1 X97.595 Y74.384 E3.33106
G1 X98.001 Y74.037 E3.39445
G1 X98.456 Y73.758 E3.45783
G1 X98.949 Y73.554 E3.52122
G1 X99.468 Y73.429 E3.58461
G1 X99.955 Y73.391 E3.64260
G1 X100.530 Y73.429 E3.71101
G1 X101.052 Y73.554 E3.77471
G1 X101.545 Y73.758 E3.83810
G1 X102.000 Y74.037 E3.90149
G1 X102.406 Y74.384 E3.96487
G1 X102.752 Y74.789 E4.02826
G1 X103.031 Y75.244 E4.09165
G1 X103.235 Y75.738 E4.15503
G1 X103.360 Y76.256 E4.21842
G1 X103.402 Y76.789 E4.28181
G1 X103.360 Y77.321 E4.34519
G1 X103.235 Y77.840 E4.40858
G1 X103.031 Y78.333 E4.47197
G1 X102.784 Y78.737 E4.52823
G1 X102.752 Y78.788 F7800.000
G1 X103.290 Y80.317 F7800.000
G1 F1800
G1 X104.187 Y107.620 E7.77265
G1 X105.762 Y108.668 E7.99728
G1 X106.320 Y109.103 E8.08133
G1 X106.900 Y109.634 E8.17473
G1 X107.436 Y110.210 E8.26813
G1 X107.920 Y110.822 E8.36080
G1 X108.398 Y111.550 E8.46425
G1 X108.743 Y112.168 E8.54830
G1 X109.069 Y112.884 E8.64170
G1 X109.337 Y113.623 E8.73510
G1 X109.544 Y114.382 E8.82850
G1 X109.690 Y115.154 E8.92190
G1 X109.774 Y115.936 E9.01530
G1 X109.795 Y116.722 E9.10870
G1 X109.752 Y117.508 E9.20210
G1 X109.647 Y118.287 E9.29550
G1 X109.479 Y119.055 E9.38890
G1 X109.251 Y119.808 E9.48230
G1 X108.963 Y120.540 E9.57570
G1 X108.617 Y121.246 E9.66911
G1 X108.215 Y121.922 E9.76251
G1 X107.761 Y122.564 E9.85591
G1 X107.256 Y123.167 E9.94931
G1 X106.709 Y123.724 E10.04198
G1 X106.047 Y124.289 E10.14543
G1 X105.476 Y124.708 E10.22948
G1 X104.807 Y125.121 E10.32288
G1 X104.107 Y125.479 E10.41628
G1 X103.386 Y125.778 E10.50895
G1 X102.555 Y126.040 E10.61240
G1 X101.867 Y126.202 E10.69645
G1 X101.089 Y126.321 E10.78985
G1 X100.305 Y126.377 E10.88325
G1 X99.518 Y126.370 E10.97665
G1 X98.741 Y126.300 E11.06932
G1 X97.884 Y126.147 E11.17277
G1 X97.198 Y125.972 E11.25682
G1 X96.454 Y125.717 E11.35022
G1 X95.733 Y125.403 E11.44362
G1 X95.039 Y125.032 E11.53702
G1 X94.378 Y124.607 E11.63042
G1 X93.753 Y124.130 E11.72382
G1 X93.168 Y123.605 E11.81722
G1 X92.627 Y123.034 E11.91062
G1 X92.133 Y122.422 E12.00402
G1 X91.690 Y121.772 E12.09742
G1 X91.301 Y121.088 E12.19082
G1 X90.968 Y120.376 E12.28422
G1 X90.695 Y119.645 E12.37689
G1 X90.463 Y118.805 E12.48034
G1 X90.373 Y118.355 E12.53493
G1 X90.957 Y118.319 E12.60438
G1 X91.750 Y118.174 E12.70019
G1 X92.521 Y117.934 E12.79600
G1 X93.265 Y117.599 E12.89291
G1 X93.996 Y117.147 E12.99500
G1 X94.582 Y116.688 E13.08339
G1 X95.152 Y116.118 E13.17920
G1 X95.650 Y115.483 E13.27501
G1 X96.067 Y114.792 E13.37082
G1 X96.398 Y114.056 E13.46663
G1 X96.638 Y113.286 E13.56244
G1 X96.783 Y112.493 E13.65825
G1 X96.829 Y111.743 E13.74749
G1 X96.829 Y80.497 E17.45841
G1 X97.806 Y81.096 E17.59452
G1 X98.507 Y81.386 E17.68460
G1 X99.244 Y81.563 E17.77469
G1 X100.001 Y81.623 E17.86478
G1 X100.746 Y81.564 E17.95363
G1 X101.455 Y81.402 E18.03998
G1 X102.195 Y81.096 E18.13510
G1 X102.842 Y80.699 E18.22518
G1 X103.244 Y80.356 E18.28803
G1 X103.954 Y78.778 F7800.000
G1 F1800
G1 X104.889 Y107.229 E21.66885
G1 X106.179 Y108.088 E21.85296
G1 X106.781 Y108.557 E21.94354
G1 X107.404 Y109.127 E22.04375
G1 X107.978 Y109.745 E22.14397
G1 X108.499 Y110.404 E22.24374
G1 X109.009 Y111.179 E22.35400
G1 X109.380 Y111.846 E22.44458
G1 X109.731 Y112.613 E22.54480
G1 X110.018 Y113.407 E22.64502
G1 X110.241 Y114.221 E22.74523
G1 X110.397 Y115.050 E22.84545
G1 X110.487 Y115.889 E22.94566
G1 X110.509 Y116.732 E23.04588
G1 X110.464 Y117.575 E23.14609
G1 X110.351 Y118.411 E23.24631
G1 X110.171 Y119.236 E23.34652
G1 X109.926 Y120.043 E23.44674
G1 X109.617 Y120.828 E23.54695
G1 X109.245 Y121.586 E23.64717
G1 X108.814 Y122.311 E23.74739
G1 X108.327 Y123.000 E23.84760
G1 X107.785 Y123.647 E23.94782
G1 X107.197 Y124.246 E24.04759
G1 X106.491 Y124.849 E24.15785
G1 X105.876 Y125.301 E24.24843
G1 X105.158 Y125.744 E24.34865
G1 X104.407 Y126.128 E24.44886
G1 X103.630 Y126.450 E24.54864
G1 X102.745 Y126.729 E24.65890
G1 X102.003 Y126.904 E24.74948
G1 X101.169 Y127.031 E24.84970
G1 X100.327 Y127.091 E24.94991
G1 X99.483 Y127.084 E25.05013
G1 X98.646 Y127.009 E25.14990
G1 X97.732 Y126.846 E25.26016
G1 X96.993 Y126.657 E25.35074
G1 X96.195 Y126.383 E25.45096
G1 X95.422 Y126.047 E25.55117
G1 X94.677 Y125.649 E25.65139
G1 X93.968 Y125.193 E25.75160
G1 X93.297 Y124.681 E25.85182
G1 X92.669 Y124.117 E25.95204
G1 X92.088 Y123.504 E26.05225
G1 X91.559 Y122.847 E26.15247
G1 X91.084 Y122.150 E26.25268
G1 X90.666 Y121.417 E26.35290
G1 X90.309 Y120.652 E26.45311
G1 X90.015 Y119.865 E26.55289
G1 X89.768 Y118.971 E26.66315
G1 X89.619 Y118.223 E26.75373
G1 X89.552 Y117.651 E26.82213
G1 X90.185 Y117.651 E26.89735
G1 X90.871 Y117.609 E26.97889
G1 X91.579 Y117.479 E27.06444
G1 X92.267 Y117.265 E27.14999
G1 X92.929 Y116.967 E27.23621
G1 X93.587 Y116.560 E27.32804
G1 X94.107 Y116.152 E27.40660
G1 X94.617 Y115.643 E27.49215
G1 X95.061 Y115.076 E27.57770
G1 X95.433 Y114.460 E27.66325
G1 X95.729 Y113.803 E27.74879
G1 X95.943 Y113.115 E27.83434
G1 X96.073 Y112.407 E27.91989
G1 X96.115 Y111.721 E28.00144
G1 X96.115 Y78.901 E31.89931
G1 X96.427 Y78.813 E31.93783
G1 X96.669 Y79.209 E31.99294
G1 X97.089 Y79.700 E32.06967
G1 X97.580 Y80.120 E32.14641
G1 X98.131 Y80.457 E32.22315
G1 X98.728 Y80.705 E32.29989
G1 X99.356 Y80.855 E32.37662
G1 X100.001 Y80.906 E32.45336
G1 X100.638 Y80.856 E32.52934
G1 X101.238 Y80.719 E32.60235
G1 X101.870 Y80.457 E32.68363
G1 X102.421 Y80.120 E32.76036
G1 X102.912 Y79.700 E32.83710
G1 X103.332 Y79.209 E32.91384
G1 X103.646 Y78.697 E32.98518
G1 X103.896 Y78.763 E33.01592
G1 E31.01592 F2400.00000
G92 E0
G1 X88.790 Y116.936 F7800.000
G1 E2.00000 F2400.00000
G1 F1800
G1 X90.164 Y116.936 E2.16313
G1 X90.784 Y116.899 E2.23698
G1 X91.408 Y116.785 E2.31226
G1 X92.013 Y116.596 E2.38755
G1 X92.593 Y116.335 E2.46308
G1 X93.177 Y115.974 E2.54465
G1 X93.633 Y115.617 E2.61338
G1 X94.081 Y115.169 E2.68866
G1 X94.472 Y114.670 E2.76395
G1 X94.800 Y114.127 E2.83924
G1 X95.060 Y113.549 E2.91453
G1 X95.249 Y112.944 E2.98982
G1 X95.363 Y112.320 E3.06510
G1 X95.401 Y111.700 E3.13895
G1 X95.401 Y76.801 E7.28369
G1 X95.437 Y76.218 E7.35311
G1 X95.543 Y75.656 E7.42103
G1 X95.718 Y75.111 E7.48896
G1 X95.959 Y74.593 E7.55689
G1 X96.263 Y74.108 E7.62482
G1 X96.625 Y73.665 E7.69275
G1 X97.039 Y73.270 E7.76068
G1 X97.498 Y72.930 E7.82861
G1 X97.997 Y72.649 E7.89654
G1 X98.526 Y72.432 E7.96447
G1 X99.078 Y72.283 E8.03240
G1 X99.642 Y72.203 E8.10008
G1 X100.270 Y72.200 E8.17468
G1 X100.785 Y72.257 E8.23614
G1 X101.341 Y72.389 E8.30407
G1 X101.877 Y72.590 E8.37200
G1 X102.384 Y72.855 E8.43993
G1 X102.853 Y73.181 E8.50786
G1 X103.278 Y73.562 E8.57554
G1 X103.684 Y74.040 E8.65013
G1 X103.973 Y74.470 E8.71160
G1 X104.230 Y74.981 E8.77953
G1 X104.421 Y75.520 E8.84746
G1 X104.545 Y76.079 E8.91539
G1 X104.599 Y76.661 E8.98485
G1 X105.591 Y106.838 E12.57083
G1 X106.597 Y107.509 E12.71442
G1 X107.243 Y108.011 E12.81153
G1 X107.907 Y108.619 E12.91856
G1 X108.521 Y109.279 E13.02559
G1 X109.079 Y109.985 E13.13246
G1 X109.620 Y110.809 E13.24954
G1 X110.018 Y111.523 E13.34665
G1 X110.392 Y112.343 E13.45368
G1 X110.699 Y113.191 E13.56071
G1 X110.937 Y114.060 E13.66774
G1 X111.105 Y114.945 E13.77478
G1 X111.200 Y115.841 E13.88181
G1 X111.224 Y116.742 E13.98884
G1 X111.175 Y117.642 E14.09587
G1 X111.055 Y118.535 E14.20290
G1 X110.863 Y119.416 E14.30993
G1 X110.601 Y120.278 E14.41696
G1 X110.271 Y121.116 E14.52399
G1 X109.874 Y121.926 E14.63102
G1 X109.414 Y122.701 E14.73805
G1 X108.893 Y123.436 E14.84508
G1 X108.315 Y124.127 E14.95211
G1 X107.684 Y124.769 E15.05898
G1 X106.935 Y125.409 E15.17606
G1 X106.276 Y125.893 E15.27317
G1 X105.509 Y126.367 E15.38020
G1 X104.706 Y126.777 E15.48724
G1 X103.875 Y127.121 E15.59411
G1 X102.935 Y127.418 E15.71119
G1 X102.139 Y127.606 E15.80830
G1 X101.248 Y127.742 E15.91533
G1 X100.349 Y127.806 E16.02236
G1 X99.448 Y127.798 E16.12939
G1 X98.552 Y127.717 E16.23626
G1 X97.581 Y127.544 E16.35334
G1 X96.789 Y127.342 E16.45045
G1 X95.936 Y127.050 E16.55748
G1 X95.110 Y126.690 E16.66451
G1 X94.315 Y126.265 E16.77154
G1 X93.557 Y125.778 E16.87857
G1 X92.841 Y125.231 E16.98560
G1 X92.170 Y124.629 E17.09264
G1 X91.550 Y123.975 E17.19967
G1 X90.985 Y123.273 E17.30670
G1 X90.478 Y122.528 E17.41373
G1 X90.032 Y121.745 E17.52076
G1 X89.650 Y120.929 E17.62779
G1 X89.335 Y120.086 E17.73466
G1 X89.072 Y119.136 E17.85174
G1 X88.913 Y118.334 E17.94885
G1 X88.808 Y117.439 E18.05588
G1 X88.792 Y116.996 E18.10845
G1 X89.142 Y117.126 F7800.000
G1 E16.10845 F2400.00000
G92 E0
G1 X91.965 Y119.046 F7800.000
G1 E2.00000 F2400.00000
G1 F1800
G1 X91.644 Y119.146 E2.04040
G1 X90.977 Y119.268 E2.12190
G1 X91.155 Y119.856 E2.19573
G1 X92.520 Y118.491 E2.42794
G1 X93.052 Y118.325 E2.49496
G1 X93.878 Y117.953 E2.60393
G1 X94.408 Y117.626 E2.67889
G1 X91.447 Y120.587 E3.18256
G1 E1.18256 F2400.00000
G92 E0
G1 X105.943 Y123.479 F7800.000
G1 E2.00000 F2400.00000
G1 F1800
G1 X107.004 Y122.409 E2.18130
G1 X107.472 Y121.850 E2.26899
G1 X107.893 Y121.255 E2.35668
G1 X108.266 Y120.628 E2.44437
G1 X108.586 Y119.973 E2.53206
G1 X108.691 Y119.709 E2.56630
G1 X103.123 Y125.277 E3.51344
G1 X102.864 Y125.384 E3.54712
G1 X102.088 Y125.628 E3.64498
G1 X101.643 Y125.734 E3.69998
G1 X109.145 Y118.231 E4.97616
G1 X109.221 Y117.885 E5.01873
G1 X109.326 Y117.028 E5.12262
G1 X100.445 Y125.909 E6.63330
G1 X100.005 Y125.940 E6.68634
G1 X99.396 Y125.935 E6.75957
G1 X109.346 Y115.985 E8.45208
G1 X109.339 Y115.706 E8.48563
G1 X109.267 Y115.040 E8.56613
G1 X98.457 Y125.851 E10.40506
G1 X97.599 Y125.686 E10.51012
G1 X109.103 Y114.182 E12.46698
G1 X108.871 Y113.391 E12.56613
G1 X96.806 Y125.456 E14.61840
G1 X96.435 Y125.329 E14.66560
G1 X96.070 Y125.170 E14.71352
G1 X108.584 Y112.655 E16.84222
G1 X108.382 Y112.213 E16.90072
G1 X108.247 Y111.970 E16.93419
G1 X95.384 Y124.833 E19.12224
G1 X95.124 Y124.694 E19.15769
G1 X94.744 Y124.450 E19.21200
G1 X107.861 Y111.333 E21.44322
G1 X107.618 Y110.963 E21.49649
G1 X107.437 Y110.734 E21.53156
G1 X94.148 Y124.023 E23.79205
G1 X93.931 Y123.858 E23.82488
G1 X93.593 Y123.555 E23.87942
G1 X106.968 Y110.180 E26.15451
G1 X106.675 Y109.863 E26.20643
G1 X106.459 Y109.666 E26.24157
G1 X93.080 Y123.045 E28.51734
G1 X92.887 Y122.841 E28.55113
G1 X92.608 Y122.495 E28.60466
G1 X105.909 Y109.194 E30.86718
G1 X105.622 Y108.970 E30.91092
G1 X105.314 Y108.765 E30.95538
G1 X92.177 Y121.903 E33.19003
G1 X92.019 Y121.671 E33.22375
G1 X91.789 Y121.268 E33.27960
G1 X104.700 Y108.357 E35.47576
G1 X104.086 Y107.948 E35.56448
G1 X96.104 Y115.930 E36.92230
G1 X96.423 Y115.402 E36.99649
G1 X96.789 Y114.588 E37.10391
G1 X96.955 Y114.056 E37.17093
G1 X103.748 Y107.263 E38.32642
G1 X103.716 Y106.273 E38.44560
G1 X97.221 Y112.767 E39.55024
G1 X97.265 Y112.042 E39.63756
G1 X97.265 Y111.700 E39.67870
G1 X103.683 Y105.282 E40.77035
G1 X103.650 Y104.292 E40.88953
G1 X97.265 Y110.677 E41.97564
G1 X97.265 Y109.654 E42.09867
G1 X103.618 Y103.302 E43.17924
G1 X103.585 Y102.311 E43.29842
