; generated by Slic3r 1.3.0 on 2021-04-20 at 00:04:31

; external perimeters extrusion width = 0.44mm (3.38mm^3/s)
; perimeters extrusion width = 0.48mm (7.54mm^3/s)
; infill extrusion width = 0.48mm (10.05mm^3/s)
; solid infill extrusion width = 0.48mm (2.51mm^3/s)
; top infill extrusion width = 0.48mm (1.88mm^3/s)

M107
M104 S205 ; set temperature
G28 ; home all axes
G1 Z5 F5000 ; lift nozzle

; Filament gcode

M109 S205 ; set temperature and wait for it to be reached
G21 ; set units to millimeters
G90 ; use absolute coordinates
M82 ; use absolute distances for extrusion
G92 E0
G1 Z0.400 F7800.000
G1 E-2.00000 F2400.00000
G92 E0
G1 X84.827 Y85.720 F7800.000
G1 E2.00000 F2400.00000
G1 F1800
G1 X86.583 Y84.220 E2.27422
G1 X88.743 Y83.405 E2.54845
G1 X90.000 Y83.286 E2.69842
G1 X110.000 Y83.286 E5.07372
G1 X112.275 Y83.683 E5.34794
G1 X114.280 Y84.827 E5.62217
G1 X115.780 Y86.583 E5.89639
G1 X116.595 Y88.743 E6.17062
G1 X116.714 Y90.000 E6.32059
G1 X116.714 Y110.000 E8.69589
G1 X116.317 Y112.275 E8.97011
G1 X115.173 Y114.280 E9.24434
G1 X113.417 Y115.780 E9.51856
G1 X111.257 Y116.595 E9.79279
G1 X110.000 Y116.714 E9.94275
G1 X90.000 Y116.714 E12.31806
G1 X87.725 Y116.317 E12.59228
G1 X85.720 Y115.173 E12.86651
G1 X84.220 Y113.417 E13.14073
G1 X83.405 Y111.257 E13.41496
G1 X83.286 Y110.000 E13.56492
G1 X83.286 Y90.000 E15.94023
G1 X83.683 Y87.725 E16.21445
G1 X84.797 Y85.772 E16.48155
G1 E14.48155 F2400.00000
G92 E0
G1 X108.172 Y108.172 F7800.000
G1 E2.00000 F2400.00000
G1 F1800
G1 X91.828 Y108.172 E3.94102
G1 X91.828 Y91.828 E5.88205
G1 X108.172 Y91.828 E7.82307
G1 X108.172 Y108.112 E9.75696
G1 X108.886 Y108.886 F7800.000
G1 F1800
G1 X91.114 Y108.886 E11.86762
G1 X91.114 Y91.114 E13.97828
G1 X108.886 Y91.114 E16.08893
G1 X108.886 Y108.826 E18.19247
G1 X109.600 Y109.600 F7800.000
G1 F1800
G1 X90.400 Y109.600 E20.47276
G1 X90.400 Y90.400 E22.75305
G1 X109.600 Y90.400 E25.03334
G1 X109.600 Y109.540 E27.30651
G1 X109.214 Y109.496 F7800.000
G1 E25.30651 F2400.00000
G92 E0
G1 X107.180 Y107.735 F7800.000
G1 E2.00000 F2400.00000
G1 F1800
G1 X107.735 Y107.180 E2.09505
G1 X107.735 Y106.151 E2.21946
G1 X106.151 Y107.735 E2.49046
G1 X105.122 Y107.735 E2.61488
G1 X107.735 Y105.122 E3.06184
G1 X107.735 Y104.094 E3.18626
G1 X104.094 Y107.735 E3.80917
G1 X103.065 Y107.735 E3.93359
G1 X107.735 Y103.065 E4.73245
G1 X107.735 Y102.037 E4.85687
G1 X102.037 Y107.735 E5.83169
G1 X101.008 Y107.735 E5.95611
G1 X107.735 Y101.008 E7.10688
G1 X107.735 Y99.979 E7.23130
G1 X99.979 Y107.735 E8.55803
G1 X98.951 Y107.735 E8.68245
G1 X107.735 Y98.951 E10.18513
G1 X107.735 Y97.922 E10.30955
G1 X97.922 Y107.735 E11.98819
G1 X96.893 Y107.735 E12.11261
G1 X107.735 Y96.893 E13.96721
G1 X107.735 Y95.865 E14.09162
G1 X95.865 Y107.735 E16.12217
G1 X94.836 Y107.735 E16.24659
G1 X107.735 Y94.836 E18.45310
G1 X107.735 Y93.808 E18.57752
G1 X93.808 Y107.735 E20.95997
G1 X92.779 Y107.735 E21.08439
G1 X107.735 Y92.779 E23.64281
G1 X107.735 Y92.265 E23.70502
G1 X107.221 Y92.265 E23.76723
G1 X92.265 Y107.221 E26.32564
G1 X92.265 Y106.192 E26.45006
G1 X106.192 Y92.265 E28.83252
G1 X105.164 Y92.265 E28.95694
G1 X92.265 Y105.164 E31.16344
G1 X92.265 Y104.135 E31.28786
G1 X104.135 Y92.265 E33.31841
G1 X103.107 Y92.265 E33.44283
G1 X92.265 Y103.107 E35.29742
G1 X92.265 Y102.078 E35.42184
G1 X102.078 Y92.265 E37.10048
G1 X101.049 Y92.265 E37.22490
G1 X92.265 Y101.049 E38.72759
G1 X92.265 Y100.021 E38.85200
G1 X100.021 Y92.265 E40.17873
G1 X98.992 Y92.265 E40.30315
G1 X92.265 Y98.992 E41.45393
G1 X92.265 Y97.963 E41.57835
G1 X97.963 Y92.265 E42.55317
G1 X96.935 Y92.265 E42.67759
G1 X92.265 Y96.935 E43.47645
G1 X92.265 Y95.906 E43.60087
G1 X95.906 Y92.265 E44.22378
G1 X94.878 Y92.265 E44.34820
G1 X92.265 Y94.878 E44.79515
G1 X92.265 Y93.849 E44.91957
G1 X93.849 Y92.265 E45.19057
G1 X92.820 Y92.265 E45.31499
G1 X92.265 Y92.820 E45.41001
M104 S200 ; set temperature
G1 Z0.700 F7800.000
G1 X108.964 Y108.964 F7800.000
G1 F3600
G1 X91.036 Y108.964 E46.34665
G1 X91.036 Y91.036 E47.28328
G1 X108.964 Y91.036 E48.21991
G1 X108.964 Y108.904 E49.15341
G1 X109.383 Y109.383 F7800.000
G1 F3600
G1 X90.617 Y109.383 E50.13381
G1 X90.617 Y90.617 E51.11421
G1 X109.383 Y90.617 E52.09462
G1 X109.383 Y109.323 E53.07188
G1 X109.780 Y109.780 F7800.000
G1 F1800
G1 X90.220 Y109.780 E53.98826
G1 X90.220 Y90.220 E54.90463
G1 X109.780 Y90.220 E55.82100
G1 X109.780 Y109.720 E56.73456
G1 X109.394 Y109.676 F7800.000
G1 X108.708 Y91.618 F7800.000
G1 F1200
G1 X108.382 Y91.292 E56.75894
G1 X107.782 Y91.292 E56.79066
G1 X108.708 Y92.218 E56.85988
G1 X108.708 Y92.817 E56.89159
G1 X107.183 Y91.292 E57.00567
G1 X106.583 Y91.292 E57.03738
G1 X108.708 Y93.417 E57.19630
G1 X108.708 Y94.017 E57.22802
G1 X105.983 Y91.292 E57.43179
G1 X105.384 Y91.292 E57.46350
G1 X108.708 Y94.616 E57.71212
G1 X108.708 Y95.216 E57.74383
G1 X104.784 Y91.292 E58.03730
G1 X104.184 Y91.292 E58.06901
G1 X108.708 Y95.816 E58.40732
G1 X108.708 Y96.415 E58.43904
G1 X103.585 Y91.292 E58.82220
G1 X102.985 Y91.292 E58.85391
G1 X108.708 Y97.015 E59.28192
G1 X108.708 Y97.614 E59.31363
G1 X102.386 Y91.292 E59.78649
G1 X101.786 Y91.292 E59.81821
G1 X108.708 Y98.214 E60.33591
G1 X108.708 Y98.814 E60.36762
G1 X101.186 Y91.292 E60.93018
G1 X100.587 Y91.292 E60.96189
G1 X108.708 Y99.413 E61.56930
G1 X108.708 Y100.013 E61.60101
G1 X99.987 Y91.292 E62.25326
G1 X99.387 Y91.292 E62.28497
G1 X108.708 Y100.613 E62.98207
G1 X108.708 Y101.212 E63.01378
G1 X98.788 Y91.292 E63.75573
G1 X98.188 Y91.292 E63.78744
G1 X108.708 Y101.812 E64.57424
G1 X108.708 Y102.412 E64.60595
G1 X97.588 Y91.292 E65.43759
G1 X96.989 Y91.292 E65.46931
G1 X108.708 Y103.011 E66.34580
G1 X108.708 Y103.611 E66.37751
G1 X96.389 Y91.292 E67.29885
G1 X95.789 Y91.292 E67.33056
G1 X108.708 Y104.211 E68.29675
G1 X108.708 Y104.810 E68.32846
G1 X95.190 Y91.292 E69.33950
G1 X94.590 Y91.292 E69.37121
G1 X108.708 Y105.410 E70.42709
G1 X108.708 Y106.010 E70.45881
G1 X93.990 Y91.292 E71.55954
G1 X93.391 Y91.292 E71.59125
G1 X108.708 Y106.609 E72.73683
G1 X108.708 Y107.209 E72.76854
G1 X92.791 Y91.292 E73.95897
G1 X92.192 Y91.292 E73.99068
G1 X108.708 Y107.808 E75.22596
G1 X108.708 Y108.408 E75.25767
G1 X91.592 Y91.292 E76.53779
G1 X91.292 Y91.292 E76.55365
G1 X91.292 Y91.592 E76.56951
G1 X108.408 Y108.708 E77.84963
G1 X107.808 Y108.708 E77.88134
G1 X91.292 Y92.192 E79.11662
G1 X91.292 Y92.791 E79.14833
G1 X107.209 Y108.708 E80.33876
G1 X106.609 Y108.708 E80.37047
G1 X91.292 Y93.391 E81.51606
G1 X91.292 Y93.990 E81.54777
G1 X106.010 Y108.708 E82.64850
G1 X105.410 Y108.708 E82.68021
G1 X91.292 Y94.590 E83.73610
G1 X91.292 Y95.190 E83.76781
G1 X104.810 Y108.708 E84.77885
G1 X104.211 Y108.708 E84.81056
G1 X91.292 Y95.789 E85.77675
G1 X91.292 Y96.389 E85.80846
G1 X103.611 Y108.708 E86.72980
G1 X103.011 Y108.708 E86.76151
G1 X91.292 Y96.989 E87.63801
G1 X91.292 Y97.588 E87.66972
G1 X102.412 Y108.708 E88.50136
G1 X101.812 Y108.708 E88.53308
G1 X91.292 Y98.188 E89.31987
G1 X91.292 Y98.788 E89.35158
G1 X101.212 Y108.708 E90.09353
G1 X100.613 Y108.708 E90.12525
G1 X91.292 Y99.387 E90.82235
G1 X91.292 Y99.987 E90.85406
G1 X100.013 Y108.708 E91.50631
G1 X99.413 Y108.708 E91.53802
G1 X91.292 Y100.587 E92.14543
G1 X91.292 Y101.186 E92.17714
G1 X98.814 Y108.708 E92.73970
G1 X98.214 Y108.708 E92.77141
G1 X91.292 Y101.786 E93.28912
G1 X91.292 Y102.386 E93.32083
G1 X97.614 Y108.708 E93.79369
G1 X97.015 Y108.708 E93.82540
G1 X91.292 Y102.985 E94.25341
G1 X91.292 Y103.585 E94.28513
G1 X96.415 Y108.708 E94.66829
G1 X95.816 Y108.708 E94.70000
G1 X91.292 Y104.184 E95.03832
G1 X91.292 Y104.784 E95.07003
G1 X95.216 Y108.708 E95.36350
G1 X94.616 Y108.708 E95.39521
G1 X91.292 Y105.384 E95.64383
G1 X91.292 Y105.983 E95.67554
G1 X94.017 Y108.708 E95.87931
G1 X93.417 Y108.708 E95.91103
G1 X91.292 Y106.583 E96.06995
G1 X91.292 Y107.183 E96.10166
G1 X92.817 Y108.708 E96.21574
G1 X92.218 Y108.708 E96.24745
G1 X91.292 Y107.782 E96.31668
G1 X91.292 Y108.382 E96.34839
G1 X91.618 Y108.708 E96.37276
G1 Z1.000 F7800.000
G1 X108.964 Y108.964 F7800.000
G1 F3600
G1 X91.036 Y108.964 E97.30939
G1 X91.036 Y91.036 E98.24602
G1 X108.964 Y91.036 E99.18266
G1 X108.964 Y108.904 E100.11616
G1 X109.383 Y109.383 F7800.000
G1 F3600
G1 X90.617 Y109.383 E101.09656
G1 X90.617 Y90.617 E102.07696
G1 X109.383 Y90.617 E103.05736
G1 X109.383 Y109.323 E104.03463
G1 X109.780 Y109.780 F7800.000
G1 F1800
G1 X90.220 Y109.780 E104.95100
G1 X90.220 Y90.220 E105.86738
G1 X109.780 Y90.220 E106.78375
G1 X109.780 Y109.720 E107.69731
G1 X109.394 Y109.676 F7800.000
G1 X108.382 Y108.708 F7800.000
G1 F1200
G1 X108.708 Y108.382 E107.72169
G1 X108.708 Y107.782 E107.75340
G1 X107.782 Y108.708 E107.82263
G1 X107.183 Y108.708 E107.85434
G1 X108.708 Y107.183 E107.96841
G1 X108.708 Y106.583 E108.00013
G1 X106.583 Y108.708 E108.15905
G1 X105.983 Y108.708 E108.19076
G1 X108.708 Y105.983 E108.39453
G1 X108.708 Y105.384 E108.42624
G1 X105.384 Y108.708 E108.67486
G1 X104.784 Y108.708 E108.70657
G1 X108.708 Y104.784 E109.00004
G1 X108.708 Y104.184 E109.03175
G1 X104.184 Y108.708 E109.37007
G1 X103.585 Y108.708 E109.40178
G1 X108.708 Y103.585 E109.78494
G1 X108.708 Y102.985 E109.81666
G1 X102.985 Y108.708 E110.24467
G1 X102.386 Y108.708 E110.27638
G1 X108.708 Y102.386 E110.74924
G1 X108.708 Y101.786 E110.78095
G1 X101.786 Y108.708 E111.29866
G1 X101.186 Y108.708 E111.33037
G1 X108.708 Y101.186 E111.89292
G1 X108.708 Y100.587 E111.92464
G1 X100.587 Y108.708 E112.53204
G1 X99.987 Y108.708 E112.56375
G1 X108.708 Y99.987 E113.21600
G1 X108.708 Y99.387 E113.24772
G1 X99.387 Y108.708 E113.94481
G1 X98.788 Y108.708 E113.97653
G1 X108.708 Y98.788 E114.71847
G1 X108.708 Y98.188 E114.75019
G1 X98.188 Y108.708 E115.53698
G1 X97.588 Y108.708 E115.56869
G1 X108.708 Y97.588 E116.40034
G1 X108.708 Y96.989 E116.43205
G1 X96.989 Y108.708 E117.30854
G1 X96.389 Y108.708 E117.34025
G1 X108.708 Y96.389 E118.26159
G1 X108.708 Y95.789 E118.29330
G1 X95.789 Y108.708 E119.25949
G1 X95.190 Y108.708 E119.29120
G1 X108.708 Y95.190 E120.30224
G1 X108.708 Y94.590 E120.33395
G1 X94.590 Y108.708 E121.38984
G1 X93.990 Y108.708 E121.42155
G1 X108.708 Y93.990 E122.52228
G1 X108.708 Y93.391 E122.55399
G1 X93.391 Y108.708 E123.69957
G1 X92.791 Y108.708 E123.73128
G1 X108.708 Y92.791 E124.92171
G1 X108.708 Y92.192 E124.95342
G1 X92.192 Y108.708 E126.18870
G1 X91.592 Y108.708 E126.22041
G1 X108.708 Y91.592 E127.50054
G1 X108.708 Y91.292 E127.51639
G1 X108.408 Y91.292 E127.53225
G1 X91.292 Y108.408 E128.81237
G1 X91.292 Y107.808 E128.84409
G1 X107.808 Y91.292 E130.07936
G1 X107.209 Y91.292 E130.11108
G1 X91.292 Y107.209 E131.30150
G1 X91.292 Y106.609 E131.33322
G1 X106.609 Y91.292 E132.47880
G1 X106.010 Y91.292 E132.51051
G1 X91.292 Y106.010 E133.61124
G1 X91.292 Y105.410 E133.64295
G1 X105.410 Y91.292 E134.69884
G1 X104.810 Y91.292 E134.73055
G1 X91.292 Y104.810 E135.74159
G1 X91.292 Y104.211 E135.77330
G1 X104.211 Y91.292 E136.73949
G1 X103.611 Y91.292 E136.77120
G1 X91.292 Y103.611 E137.69254
G1 X91.292 Y103.011 E137.72425
G1 X103.011 Y91.292 E138.60075
G1 X102.412 Y91.292 E138.63246
G1 X91.292 Y102.412 E139.46410
G1 X91.292 Y101.812 E139.49582
G1 X101.812 Y91.292 E140.28261
G1 X101.212 Y91.292 E140.31432
G1 X91.292 Y101.212 E141.05627
G1 X91.292 Y100.613 E141.08799
G1 X100.613 Y91.292 E141.78509
G1 X100.013 Y91.292 E141.81680
G1 X91.292 Y100.013 E142.46905
G1 X91.292 Y99.413 E142.50076
G1 X99.413 Y91.292 E143.10817
G1 X98.814 Y91.292 E143.13988
G1 X91.292 Y98.814 E143.70244
G1 X91.292 Y98.214 E143.73415
G1 X98.214 Y91.292 E144.25186
G1 X97.614 Y91.292 E144.28357
G1 X91.292 Y97.614 E144.75643
G1 X91.292 Y97.015 E144.78814
G1 X97.015 Y91.292 E145.21615
G1 X96.415 Y91.292 E145.24786
G1 X91.292 Y96.415 E145.63103
G1 X91.292 Y95.816 E145.66274
G1 X95.816 Y91.292 E146.00106
G1 X95.216 Y91.292 E146.03277
G1 X91.292 Y95.216 E146.32624
G1 X91.292 Y94.616 E146.35795
G1 X94.616 Y91.292 E146.60657
G1 X94.017 Y91.292 E146.63828
G1 X91.292 Y94.017 E146.84205
G1 X91.292 Y93.417 E146.87376
G1 X93.417 Y91.292 E147.03269
G1 X92.817 Y91.292 E147.06440
G1 X91.292 Y92.817 E147.17848
G1 X91.292 Y92.218 E147.21019
G1 X92.218 Y91.292 E147.27942
G1 X91.618 Y91.292 E147.31113
G1 X91.292 Y91.618 E147.33550
M106 S247.35
G1 Z1.300 F7800.000
G1 X108.964 Y108.964 F7800.000
G1 F3600
G1 X91.036 Y108.964 E148.27213
G1 X91.036 Y91.036 E149.20876
G1 X108.964 Y91.036 E150.14540
G1 X108.964 Y108.904 E151.07889
G1 X109.383 Y109.383 F7800.000
G1 F3600
G1 X90.617 Y109.383 E152.05930
G1 X90.617 Y90.617 E153.03970
G1 X109.383 Y90.617 E154.02010
G1 X109.383 Y109.323 E154.99737
G1 X109.780 Y109.780 F7800.000
G1 F1800
G1 X90.220 Y109.780 E155.91374
G1 X90.220 Y90.220 E156.83011
G1 X109.780 Y90.220 E157.74649
G1 X109.780 Y109.720 E158.66005
G1 X109.394 Y109.676 F7800.000
G1 X108.768 Y107.408 F7800.000
G1 F4800
G1 X104.302 Y108.605 E158.90160
G1 X104.156 Y108.768 F7800.000
G1 F4800
G1 X108.605 Y92.163 E159.79968
G1 X108.768 Y94.398 F7800.000
G1 F4800
G1 X91.232 Y99.097 E160.74812
G1 X91.292 Y100.178 F7800.000
G1 F4800
G1 X99.822 Y108.708 E161.37836
G1 X108.708 Y108.708 E161.84260
G1 X91.292 Y91.292 E163.12938
G1 X100.178 Y91.292 E163.59361
G1 X108.708 Y99.822 E164.22386
G1 X108.768 Y100.903 F7800.000
G1 F4800
G1 X91.232 Y105.602 E165.17229
G1 X91.395 Y107.837 F7800.000
G1 F4800
G1 X95.844 Y91.232 E166.07038
G1 X95.698 Y91.395 F7800.000
G1 F4800
G1 X91.232 Y92.592 E166.31193
G1 X102.349 Y91.232 F7800.000
G1 F4800
G1 X97.651 Y108.768 E167.26036
G1 Z1.600 F7800.000
G1 X108.964 Y108.964 F7800.000
G1 F3600
G1 X91.036 Y108.964 E168.19700
G1 X91.036 Y91.036 E169.13363
G1 X108.964 Y91.036 E170.07026
G1 X108.964 Y108.904 E171.00376
G1 X109.383 Y109.383 F7800.000
G1 F3600
G1 X90.617 Y109.383 E171.98416
G1 X90.617 Y90.617 E172.96457
G1 X109.383 Y90.617 E173.94497
G1 X109.383 Y109.323 E174.92224
G1 X109.780 Y109.780 F7800.000
G1 F1800
G1 X90.220 Y109.780 E175.83861
G1 X90.220 Y90.220 E176.75498
G1 X109.780 Y90.220 E177.67135
G1 X109.780 Y109.720 E178.58492
G1 X109.394 Y109.676 F7800.000
G1 X108.768 Y107.408 F7800.000
G1 F4800
G1 X104.302 Y108.605 E178.82647
G1 X104.156 Y108.768 F7800.000
G1 F4800
G1 X108.605 Y92.163 E179.72455
G1 X108.768 Y94.398 F7800.000
G1 F4800
G1 X91.232 Y99.097 E180.67299
G1 X91.292 Y100.178 F7800.000
G1 F4800
G1 X99.822 Y108.708 E181.30323
G1 X108.708 Y108.708 E181.76747
G1 X91.292 Y91.292 E183.05424
G1 X100.178 Y91.292 E183.51848
G1 X108.708 Y99.822 E184.14873
G1 X108.768 Y100.903 F7800.000
G1 F4800
G1 X91.232 Y105.602 E185.09716
G1 X91.395 Y107.837 F7800.000
G1 F4800
G1 X95.844 Y91.232 E185.99524
G1 X95.698 Y91.395 F7800.000
G1 F4800
G1 X91.232 Y92.592 E186.23680
G1 X102.349 Y91.232 F7800.000
G1 F4800
G1 X97.651 Y108.768 E187.18523
G1 Z1.900 F7800.000
G1 X108.964 Y108.964 F7800.000
G1 F3600
G1 X91.036 Y108.964 E188.12187
G1 X91.036 Y91.036 E189.05850
G1 X108.964 Y91.036 E189.99513
G1 X108.964 Y108.904 E190.92863
G1 X109.383 Y109.383 F7800.000
G1 F3600
G1 X90.617 Y109.383 E191.90903
G1 X90.617 Y90.617 E192.88943
G1 X109.383 Y90.617 E193.86984
G1 X109.383 Y109.323 E194.84710
G1 X109.780 Y109.780 F7800.000
G1 F1800
G1 X90.220 Y109.780 E195.76348
G1 X90.220 Y90.220 E196.67985
G1 X109.780 Y90.220 E197.59622
G1 X109.780 Y109.720 E198.50978
G1 X109.394 Y109.676 F7800.000
G1 X108.768 Y107.408 F7800.000
G1 F4800
G1 X104.302 Y108.605 E198.75134
G1 X104.156 Y108.768 F7800.000
G1 F4800
G1 X108.605 Y92.163 E199.64942
G1 X108.768 Y94.398 F7800.000
G1 F4800
G1 X91.232 Y99.097 E200.59785
G1 X91.292 Y100.178 F7800.000
G1 F4800
G1 X99.822 Y108.708 E201.22810
G1 X108.708 Y108.708 E201.69234
G1 X91.292 Y91.292 E202.97911
G1 X100.178 Y91.292 E203.44335
G1 X108.708 Y99.822 E204.07360
G1 X108.768 Y100.903 F7800.000
G1 F4800
G1 X91.232 Y105.602 E205.02203
G1 X91.395 Y107.837 F7800.000
G1 F4800
G1 X95.844 Y91.232 E205.92011
G1 X95.698 Y91.395 F7800.000
G1 F4800
G1 X91.232 Y92.592 E206.16166
G1 X102.349 Y91.232 F7800.000
G1 F4800
G1 X97.651 Y108.768 E207.11010
G1 Z2.200 F7800.000
G1 X108.964 Y108.964 F7800.000
G1 F3600
G1 X91.036 Y108.964 E208.04673
G1 X91.036 Y91.036 E208.98337
G1 X108.964 Y91.036 E209.92000
G1 X108.964 Y108.904 E210.85350
